X: 33140
T: Princess Of Antalya, The
R: reel
M: 4/4
K: Dmajor
|:dA A2 ABAG|FAEA DEFD|EB, B,2 EFGB|AF F2 ABcA|
dA A2 ABAG|F2 EF DEFD|EB,EF GABG|ABcA edcA:|
|:dA A2 ABde|fdgf edcd|eB B2 efge|bged cdec|
dA A2 ABde|fdgf edcA|BG G2 ABde|fage fdec:|

